X: 524
T: Dongshan diao
%%abc-version 2.0
%%abcx-abcm2ps-target-version 5.9.1 (29 Sep 2008)
%%abc-creator hum2abc beta
%%abcx-conversion-date 2013/10/02 07:52:30
%%abc-edited-by Helmut Schaffrath
%%humdrum-veritas 738119261
%%humdrum-veritas-data 2448089574
%%continueall 1
%%barnumbers 0
L: 1/8
M: 2/4
K: G
d d B d [I:setbarnb 1]| 
e dA2 | 
d e d B | 
A GD2 | 
G A B d | 
A BD2 | 
G G A E | 
D4 |]  



